X: 8420
T: Cows In The Castle
R: jig
M: 6/8
K: Edorian
|:BEE BEE|FGA FAG|EBA BEA|FAF FGA|
BEE BEE|ABA AGF|EDG FAG|1 FED E3:|2 FED Egf||
eBB BAB|eBB BAG|FAA d3|ede fag|
eBB BAB|eBB BAG|FAF GAG|FED Egf|
eBB BAB|eBB BAG|FAA d3|ede fag|
eBA GBG|FAF FGA|EDG FAG|FED E3||

